src/icons/qbt-theme/view-statistics.svg

<svg viewBox="0 0 32 32" xmlns="http://www.w3.org/2000/svg"><path d="m29.7 24.6v1.7h-27.4v-20.6h1.7v18.9zm-18.8-8.6v6.9h-3.5v-6.9zm5.1-6.9v13.7h-3.4v-13.7zm5.1 3.5v10.3h-3.4v-10.3zm5.2-5.2v15.4h-3.4v-15.4z" fill="#1d99f3" transform="matrix(1.0218978 0 0 1.3592233 -.350365 -5.747573)"/></svg>

<svg xmlns="http://www.w3.org/2000/svg" viewBox="0 0 32 32">
  <path fill="#375273" d="M29.7 24.6v1.7H2.3V5.7H4v18.9h25.7zM10.9 16v6.9H7.4V16h3.5zM16 9.1v13.7h-3.4V9.1H16zm5.1 3.5v10.3h-3.4V12.6h3.4zm5.2-5.2v15.4h-3.4V7.4h3.4z"/>
</svg>
